X:45
T:Crowley's Reel 
T:Crowley's #1 
B:CRE1.137 (Ril Ui Chruaidhlaoich)
F:file ID: cre.1/045crowl
S:Tommy Potts
M:C
L:1/8
Q:180
R:reel
K:D
dB||AFdA B2dB|ADD2 ADD2|AFAd BGBc|d2eg fddB|
AFdA B2dB|ADD2 ADD2|AFAd BABc|d2eg fdd||
e|fafa g2fg|eA (3cBA eA (3cBA|Aff2 g2fg|(3agf (3gfe fdde|
(3fga fa g2fg|eA (3cBA eA (3cBA|Aff2 g2fg|(3agf (3gfe fdd2||

%%%

